X: 85
T: SLY PATRICK
B: O'Neill's 85
M:  6/8
L: 1/8
Z: Transcribed by John Chambers <jc@trillian.mit.edu>
N: "Tenderly"
K:G
(G/A/) \
|BAG AGE|D3 E2G|GAB c2B|A3- A2G/A/|
|BAG AGE|D3 E2G|GAB BAG|G3- G2||
||G \
|B.cd def|g3 f2e|edB BcBAG|A3- A2G/A/|
|BAG AGE|D3 E2G|GAB BAGG|G3- G2||
